src/assets/icons/vk.svg

<svg width="25" height="15" viewBox="0 0 25 15" fill="none" xmlns="http://www.w3.org/2000/svg">
<path fill-rule="evenodd" clip-rule="evenodd" d="M20.7263 7.16274C20.7263 7.16274 24.0138 2.52548 24.3405 1.00148C24.4493 0.457236 24.2098 0.15229 23.6437 0.15229C23.6437 0.15229 21.7496 0.15229 20.7917 0.15229C20.1385 0.15229 19.899 0.435323 19.7031 0.849007C19.7031 0.849007 18.1611 4.13456 16.285 6.20491C15.6827 6.87421 15.3765 7.07564 15.044 7.07564C14.7758 7.07564 14.6522 6.85211 14.6522 6.24836V0.95793C14.6522 0.217753 14.5651 0 13.9555 0H9.38355C9.03514 0 8.81739 0.202533 8.81739 0.478873C8.81739 1.17596 9.88424 1.33338 9.88424 3.2221V7.11919C9.88424 7.90301 9.84069 8.20778 9.47056 8.20778C8.4909 8.20778 6.16136 4.83329 4.85511 1.00148C4.59381 0.217753 4.31078 0 3.57051 0H0.718539C0.304854 0 0 0.282941 0 0.696535C0 1.45853 0.89265 4.98558 4.39788 9.71004C6.74915 12.8886 9.84069 14.6085 12.6274 14.6085C14.3256 14.6085 14.7393 14.3256 14.7393 13.607V11.1687C14.7393 10.559 14.9787 10.2978 15.3271 10.2978C15.7189 10.2978 16.4106 10.4237 18.0267 12.0178C19.9426 13.8466 20.0733 14.6085 21.1184 14.6085H24.3187C24.6452 14.6085 24.95 14.4561 24.95 13.9119C24.95 13.1934 24.0138 11.9089 22.5769 10.3848C21.9891 9.60112 21.0312 8.75211 20.7263 8.36025C20.291 7.90301 20.4216 7.64162 20.7263 7.16274Z"/>
</svg>

<svg width="25" height="15" fill="none" xmlns="http://www.w3.org/2000/svg"><path clip-rule="evenodd" d="M20.726 7.163S24.014 2.525 24.34 1c.11-.544-.13-.849-.696-.849h-2.852c-.654 0-.893.283-1.089.697 0 0-1.542 3.286-3.418 5.356-.602.67-.909.87-1.241.87-.268 0-.392-.223-.392-.827V.958c0-.74-.087-.958-.696-.958H9.384c-.349 0-.567.203-.567.479 0 .697 1.067.854 1.067 2.743V7.12c0 .784-.043 1.089-.413 1.089-.98 0-3.31-3.375-4.616-7.207C4.594.218 4.311 0 3.571 0H.719C.305 0 0 .283 0 .697c0 .762.893 4.289 4.398 9.013 2.351 3.179 5.443 4.898 8.23 4.898 1.698 0 2.111-.282 2.111-1.001v-2.438c0-.61.24-.871.588-.871.392 0 1.084.126 2.7 1.72 1.916 1.829 2.046 2.59 3.091 2.59h3.2c.327 0 .632-.152.632-.696 0-.719-.936-2.003-2.373-3.527-.588-.784-1.546-1.633-1.85-2.025-.436-.457-.305-.718 0-1.197Z"/></svg>
